communes/293.svg

<?xml version="1.0" encoding="UTF-8" standalone="no"?>
<svg
   xmlns:dc="http://purl.org/dc/elements/1.1/"
   xmlns:cc="http://creativecommons.org/ns#"
   xmlns:rdf="http://www.w3.org/1999/02/22-rdf-syntax-ns#"
   xmlns:svg="http://www.w3.org/2000/svg"
   xmlns="http://www.w3.org/2000/svg"
   xmlns:sodipodi="http://sodipodi.sourceforge.net/DTD/sodipodi-0.dtd"
   xmlns:inkscape="http://www.inkscape.org/namespaces/inkscape"
   version="1.0"
   width="231.42986"
   height="271.08408"
   id="svg2780"
   sodipodi:docname="293.svg">
  <metadata
     id="metadata11">
    <rdf:RDF>
      <cc:Work
         rdf:about="">
        <dc:format>image/svg+xml</dc:format>
        <dc:type
           rdf:resource="http://purl.org/dc/dcmitype/StillImage" />
      </cc:Work>
    </rdf:RDF>
  </metadata>
  <sodipodi:namedview
     pagecolor="#ffffff"
     bordercolor="#666666"
     borderopacity="1"
     objecttolerance="10"
     gridtolerance="10"
     guidetolerance="10"
     inkscape:pageopacity="0"
     inkscape:pageshadow="2"
     inkscape:window-width="640"
     inkscape:window-height="480"
     id="namedview9" />
  <defs
     id="defs2782" />
  <g
     transform="translate(-9.719529,-806.78789)"
     id="layer1">
    <path
       d="M 10.719529,807.78789 L 14.890977,983.00541 C 17.870575,1108.1608 232.99833,1108.1608 235.97795,983.00541 L 240.14938,807.78789 L 10.719529,807.78789 z"
       id="path3282"
       style="fill:#d4381a;fill-opacity:1;fill-rule:evenodd;stroke:#000000;stroke-width:2;stroke-linecap:butt;stroke-miterlimit:4;stroke-dashoffset:0;stroke-opacity:1" />
    <path
       d="M 125.43446,855.85192 C 123.68893,870.33321 85.172923,912.98562 66.830483,927.51835 C 82.999773,949.82512 96.496943,985.0283 101.22797,1020.2696 L 79.131013,1022.2395 C 73.051563,990.15641 59.532363,953.68721 38.015153,923.8456 C 78.966403,894.359 103.72008,862.23596 125.43446,820.30782 C 147.14884,862.23596 171.90251,894.359 212.85376,923.8456 C 191.33655,953.68721 177.81735,990.15641 171.7379,1022.2395 L 149.64094,1020.2696 C 154.37197,985.0283 167.86914,949.82512 184.03843,927.51835 C 165.69599,912.98562 127.17999,870.33321 125.43446,855.85192 z"
       id="path4289"
       style="opacity:1;fill:#ffef08;fill-opacity:1;fill-rule:evenodd;stroke:#000000;stroke-width:1.00000012px;stroke-linecap:butt;stroke-linejoin:miter;marker:none;marker-start:none;marker-mid:none;marker-end:none;stroke-miterlimit:4;stroke-dasharray:none;stroke-dashoffset:0;stroke-opacity:1;visibility:visible;display:inline;overflow:visible;enable-background:accumulate" />
    <rect
       width="106.98478"
       height="19.666082"
       x="71.942062"
       y="1014.9796"
       id="rect4805"
       style="opacity:1;fill:#ffef08;fill-opacity:1;fill-rule:evenodd;stroke:#000000;stroke-width:1.00000012px;stroke-linecap:butt;stroke-linejoin:miter;marker:none;marker-start:none;marker-mid:none;marker-end:none;stroke-miterlimit:4;stroke-dasharray:none;stroke-dashoffset:0;stroke-opacity:1;visibility:visible;display:inline;overflow:visible;enable-background:accumulate" />
    <path
       d="M 125.43445,836.16665 C 117.6643,849.27222 120.33391,888.33466 116.50976,982.57741 C 116.00935,994.90963 109.28877,1009.238 101.62948,1014.9796 L 101.62948,1038.2555 L 149.23942,1038.2555 L 149.23942,1014.9796 C 141.58013,1009.238 134.85955,994.90963 134.35914,982.57741 C 130.53499,888.33466 133.2046,849.27222 125.43445,836.16665 z"
       id="rect4807"
       style="fill:#ffef08;fill-opacity:1;fill-rule:evenodd;stroke:#000000;stroke-width:1.00000012px;stroke-linecap:butt;stroke-linejoin:miter;marker:none;marker-start:none;marker-mid:none;marker-end:none;stroke-miterlimit:4;stroke-dashoffset:0;stroke-opacity:1;visibility:visible;display:inline;overflow:visible;enable-background:accumulate" />
  </g>
</svg>

<?xml version="1.0" encoding="UTF-8"?>
<svg version="1.0" viewBox="0 0 231.43 271.08" xmlns="http://www.w3.org/2000/svg" xmlns:cc="http://creativecommons.org/ns#" xmlns:dc="http://purl.org/dc/elements/1.1/" xmlns:rdf="http://www.w3.org/1999/02/22-rdf-syntax-ns#">
<metadata>
<rdf:RDF>
<cc:Work rdf:about="">
<dc:format>image/svg+xml</dc:format>
<dc:type rdf:resource="http://purl.org/dc/dcmitype/StillImage"/>
</cc:Work>
</rdf:RDF>
</metadata>
<g transform="translate(-9.7195 -806.79)" fill-rule="evenodd" stroke="#000">
<path d="m10.72 807.79 4.1714 175.22c2.9796 125.16 218.11 125.16 221.09 0l4.1714-175.22h-229.43z" fill="#d4381a" stroke-width="2"/>
<path d="m125.43 855.85c-1.7455 14.481-40.262 57.134-58.604 71.666 16.169 22.307 29.666 57.51 34.397 92.751l-22.097 1.9699c-6.0794-32.083-19.599-68.552-41.116-98.394 40.951-29.487 65.705-61.61 87.419-103.54 21.714 41.928 46.468 74.051 87.419 103.54-21.517 29.842-35.036 66.311-41.116 98.394l-22.097-1.9699c4.731-35.241 18.228-70.444 34.397-92.751-18.342-14.533-56.858-57.185-58.604-71.666z" fill="#ffef08" stroke-width="1px"/>
<rect x="71.942" y="1015" width="106.98" height="19.666" fill="#ffef08" stroke-width="1px"/>
<path d="m125.43 836.17c-7.7702 13.106-5.1005 52.168-8.9247 146.41-0.50041 12.332-7.221 26.661-14.88 32.402v23.276h47.61v-23.276c-7.6593-5.7416-14.38-20.07-14.88-32.402-3.8242-94.243-1.1545-133.31-8.9247-146.41z" fill="#ffef08" stroke-width="1px"/>
</g>
</svg>
